svg/SJJB-OpenStreetMapIcons/transport/parking_private.svg

<?xml version="1.0" encoding="UTF-8" standalone="no"?>
<!-- Created with Inkscape (http://www.inkscape.org/) -->

<svg
   xmlns:dc="http://purl.org/dc/elements/1.1/"
   xmlns:cc="http://creativecommons.org/ns#"
   xmlns:rdf="http://www.w3.org/1999/02/22-rdf-syntax-ns#"
   xmlns:svg="http://www.w3.org/2000/svg"
   xmlns="http://www.w3.org/2000/svg"
   xmlns:sodipodi="http://sodipodi.sourceforge.net/DTD/sodipodi-0.dtd"
   xmlns:inkscape="http://www.inkscape.org/namespaces/inkscape"
   version="1.0"
   width="580"
   height="580"
   id="svg2"
   sodipodi:version="0.32"
   inkscape:version="0.47 r22583"
   sodipodi:docname="transport_parking_private.svg"
   inkscape:output_extension="org.inkscape.output.svg.inkscape">
  <metadata
     id="metadata10">
    <rdf:RDF>
      <cc:Work
         rdf:about="">
        <dc:format>image/svg+xml</dc:format>
        <dc:type
           rdf:resource="http://purl.org/dc/dcmitype/StillImage" />
        <cc:license
           rdf:resource="http://web.resource.org/cc/PublicDomain" />
        <dc:language>en</dc:language>
        <dc:title />
      </cc:Work>
    </rdf:RDF>
  </metadata>
  <sodipodi:namedview
     inkscape:window-height="994"
     inkscape:window-width="1400"
     inkscape:pageshadow="2"
     inkscape:pageopacity="0.0"
     guidetolerance="10.0"
     gridtolerance="10.0"
     objecttolerance="10.0"
     borderopacity="1.0"
     bordercolor="#666666"
     pagecolor="#ffffff"
     id="base"
     showgrid="false"
     inkscape:zoom="0.7071068"
     inkscape:cx="206.89298"
     inkscape:cy="18.285073"
     inkscape:window-x="-4"
     inkscape:window-y="-4"
     inkscape:current-layer="svg2"
     inkscape:window-maximized="1" />
  <defs
     id="defs4">
    <inkscape:perspective
       sodipodi:type="inkscape:persp3d"
       inkscape:vp_x="0 : 290 : 1"
       inkscape:vp_y="0 : 1000 : 0"
       inkscape:vp_z="580 : 290 : 1"
       inkscape:persp3d-origin="290 : 193.33333 : 1"
       id="perspective12" />
    <style
       type="text/css"
       id="style6">
   
    .fil0 {fill:#EF7900}
   
  </style>
    <inkscape:perspective
       id="perspective6807"
       inkscape:persp3d-origin="29.116032 : 19.410688 : 1"
       inkscape:vp_z="58.232063 : 29.116032 : 1"
       inkscape:vp_y="0 : 1000 : 0"
       inkscape:vp_x="0 : 29.116032 : 1"
       sodipodi:type="inkscape:persp3d" />
    <inkscape:perspective
       id="perspective6954"
       inkscape:persp3d-origin="290 : 193.33333 : 1"
       inkscape:vp_z="580 : 290 : 1"
       inkscape:vp_y="0 : 1000 : 0"
       inkscape:vp_x="0 : 290 : 1"
       sodipodi:type="inkscape:persp3d" />
    <marker
       viewBox="0 0 10 10"
       refY="5"
       refX="10"
       orient="auto"
       markerWidth="4"
       markerUnits="strokeWidth"
       markerHeight="3"
       id="ArrowStart">
      <path
         id="path2295"
         d="M 10 0 L 0 5 L 10 10 z" />
    </marker>
    <marker
       viewBox="0 0 10 10"
       refY="5"
       refX="0"
       orient="auto"
       markerWidth="4"
       markerUnits="strokeWidth"
       markerHeight="3"
       id="ArrowEnd">
      <path
         id="path2292"
         d="M 0 0 L 10 5 L 0 10 z" />
    </marker>
    <inkscape:perspective
       id="perspective7597"
       inkscape:persp3d-origin="178.5405 : 158.483 : 1"
       inkscape:vp_z="357.08099 : 237.7245 : 1"
       inkscape:vp_y="0 : 1000 : 0"
       inkscape:vp_x="0 : 237.7245 : 1"
       sodipodi:type="inkscape:persp3d" />
    <inkscape:perspective
       id="perspective3660"
       inkscape:persp3d-origin="0.5 : 0.33333333 : 1"
       inkscape:vp_z="1 : 0.5 : 1"
       inkscape:vp_y="0 : 1000 : 0"
       inkscape:vp_x="0 : 0.5 : 1"
       sodipodi:type="inkscape:persp3d" />
    <inkscape:perspective
       id="perspective5142"
       inkscape:persp3d-origin="0.5 : 0.33333333 : 1"
       inkscape:vp_z="1 : 0.5 : 1"
       inkscape:vp_y="0 : 1000 : 0"
       inkscape:vp_x="0 : 0.5 : 1"
       sodipodi:type="inkscape:persp3d" />
    <inkscape:perspective
       id="perspective5168"
       inkscape:persp3d-origin="0.5 : 0.33333333 : 1"
       inkscape:vp_z="1 : 0.5 : 1"
       inkscape:vp_y="0 : 1000 : 0"
       inkscape:vp_x="0 : 0.5 : 1"
       sodipodi:type="inkscape:persp3d" />
    <inkscape:perspective
       id="perspective3725"
       inkscape:persp3d-origin="0.5 : 0.33333333 : 1"
       inkscape:vp_z="1 : 0.5 : 1"
       inkscape:vp_y="0 : 1000 : 0"
       inkscape:vp_x="0 : 0.5 : 1"
       sodipodi:type="inkscape:persp3d" />
  </defs>
  <g
     id="g1327">
    <path
       d="M 66.275,1.768 C 24.94,1.768 1.704,23.139 1.704,66.804 L 1.704,516.927 C 1.704,557.771 22.598,579.156 63.896,579.156 L 515.92,579.156 C 557.227,579.156 578.149,558.84 578.149,516.927 L 578.149,66.804 C 578.149,24.203 557.227,1.768 514.627,1.768 C 514.624,1.768 66.133,1.625 66.275,1.768 z"
       style="fill:#111111;stroke:#eeeeee;stroke-width:3.40799999"
       id="path1329" />
  </g>
  <g
     id="g2319"
     transform="translate(879.29125,36.805119)">
    <path
       id="path2323"
       style="fill:#ffffff;stroke:none"
       d="" />
  </g>
  <g
     id="g2325"
     transform="translate(879.29125,36.805119)">
    <path
       id="path2329"
       style="fill:#ffffff;stroke:none"
       d="" />
  </g>
  <path
     style="font-size:143.53205872000001000px;font-style:normal;font-variant:normal;font-weight:normal;font-stretch:normal;text-indent:0;text-align:start;text-decoration:none;line-height:normal;letter-spacing:normal;word-spacing:normal;text-transform:none;direction:ltr;block-progression:tb;writing-mode:lr-tb;text-anchor:start;color:#000000;fill:#ffffff;fill-opacity:1;fill-rule:nonzero;stroke:none;stroke-width:22.68786240000000000;marker:none;visibility:visible;display:inline;overflow:visible;enable-background:accumulate;font-family:Bitstream Vera Sans;-inkscape-font-specification:Bitstream Vera Sans;opacity:0.75"
     d="M 145.34375 74.21875 C 142.37406 74.219094 139.41239 75.43136 137.3125 77.53125 C 135.21261 79.63114 134.00034 82.592807 134 85.5625 L 134 108.03125 L 169.34375 108.03125 L 169.34375 74.21875 L 145.34375 74.21875 z M 212.28125 74.21875 L 212.28125 106.5 L 254.21875 106.5 L 254.21875 74.21875 L 212.28125 74.21875 z M 297.65625 74.21875 L 297.65625 105.65625 L 339.59375 105.65625 L 339.59375 75.15625 C 329.01542 74.534513 317.08787 74.218953 303.625 74.21875 L 297.65625 74.21875 z M 385.125 81.71875 L 385.125 104.09375 L 427.0625 104.09375 L 427.0625 100.8125 C 426.61503 100.49203 426.17149 100.15697 425.71875 99.84375 C 414.03244 91.759904 400.44451 85.747274 385.125 81.71875 z M 427.3125 103 L 427.3125 144.9375 L 463.21875 144.9375 C 463.17813 144.85398 463.13455 144.77094 463.09375 144.6875 C 454.74663 127.61915 443.67363 113.55724 430 103 L 427.3125 103 z M 254.96875 104.875 L 254.96875 146.4375 L 296.90625 146.4375 L 296.90625 104.875 L 254.96875 104.875 z M 341.5625 105.03125 L 341.5625 146.96875 L 383.5 146.96875 L 383.5 105.03125 L 341.5625 105.03125 z M 170.09375 107.5 L 170.09375 149.4375 L 212.03125 149.4375 L 212.03125 107.5 L 170.09375 107.5 z M 385.125 146.03125 L 385.125 169.1875 C 385.35371 169.49797 385.58677 169.80705 385.8125 170.125 C 389.63165 175.50497 392.49896 181.41173 394.375 188 L 427.0625 188 L 427.0625 146.03125 L 385.125 146.03125 z M 134 149.96875 L 134 191.90625 L 169.34375 191.90625 L 169.34375 149.96875 L 134 149.96875 z M 468.78125 158.1875 L 468.78125 186.90625 L 427.3125 186.90625 L 427.3125 228.84375 L 469.25 228.84375 L 469.25 188.0625 L 475.8125 188.0625 C 474.53885 177.71974 472.20685 167.74182 468.78125 158.1875 z M 170.09375 191.375 L 170.09375 233.3125 L 212.03125 233.3125 L 212.03125 191.375 L 170.09375 191.375 z M 394.53125 229.9375 C 392.56388 237.3559 389.4165 243.70797 385.125 249.21875 L 385.125 271.875 L 427.0625 271.875 L 427.0625 229.9375 L 394.53125 229.9375 z M 468.78125 230 L 468.78125 257.21875 C 471.81903 248.52007 473.99222 239.42734 475.34375 230 L 468.78125 230 z M 134 233.84375 L 134 275.78125 L 169.34375 275.78125 L 169.34375 233.84375 L 134 233.84375 z M 427.3125 270.78125 L 427.3125 312.71875 L 432.125 312.71875 C 434.87572 310.34828 437.47505 307.8332 439.90625 305.1875 C 449.53043 294.71406 457.29142 283.20553 463.1875 270.78125 L 427.3125 270.78125 z M 339.59375 271.59375 C 334.10594 272.44029 328.17766 273.06869 321.71875 273.40625 L 339.59375 273.40625 L 339.59375 271.59375 z M 341.5625 272.8125 L 341.5625 314.75 L 383.5 314.75 L 383.5 272.8125 L 341.5625 272.8125 z M 212.28125 273.71875 L 212.28125 274.28125 L 254.21875 274.28125 L 254.21875 273.71875 L 212.28125 273.71875 z M 254.96875 273.71875 L 254.96875 314.5625 L 296.90625 314.5625 L 296.90625 273.71875 L 254.96875 273.71875 z M 170.09375 275.25 L 170.09375 317.1875 L 212.03125 317.1875 L 212.03125 275.25 L 170.09375 275.25 z M 385.125 313.8125 L 385.125 336.8125 C 401.48404 332.10404 415.49881 325.47498 427.0625 316.78125 L 427.0625 313.8125 L 385.125 313.8125 z M 297.65625 315.34375 L 297.65625 345.90625 L 308.5 345.90625 C 319.39398 345.90628 329.76395 345.50004 339.59375 344.6875 L 339.59375 315.34375 L 297.65625 315.34375 z M 212.28125 316.21875 L 212.28125 345.90625 L 254.21875 345.90625 L 254.21875 316.21875 L 212.28125 316.21875 z M 134 317.71875 L 134 359.6875 L 169.34375 359.6875 L 169.34375 317.71875 L 134 317.71875 z M 170.09375 359.15625 L 170.09375 401.09375 L 212.03125 401.09375 L 212.03125 359.15625 L 170.09375 359.15625 z M 134 401.625 L 134 443.5625 L 169.34375 443.5625 L 169.34375 401.625 L 134 401.625 z M 170.09375 443.03125 L 170.09375 484.96875 L 212.03125 484.96875 L 212.03125 443.03125 L 170.09375 443.03125 z M 134 485.5 L 134 505.15625 C 134.00034 508.12594 135.21261 511.08761 137.3125 513.1875 C 139.41239 515.28739 142.37406 516.49966 145.34375 516.5 L 169.34375 516.5 L 169.34375 485.5 L 134 485.5 z "
     id="text2419" />
  <path
     style="font-size:143.53205872000001000px;font-style:normal;font-variant:normal;font-weight:normal;font-stretch:normal;text-indent:0;text-align:start;text-decoration:none;line-height:normal;letter-spacing:normal;word-spacing:normal;text-transform:none;direction:ltr;block-progression:tb;writing-mode:lr-tb;text-anchor:start;opacity:0.5;color:#000000;fill:#ffffff;fill-opacity:1;fill-rule:nonzero;stroke:none;stroke-width:22.68786240000000000;marker:none;visibility:visible;display:inline;overflow:visible;enable-background:accumulate;font-family:Bitstream Vera Sans;-inkscape-font-specification:Bitstream Vera Sans"
     d="m 145.3295,72.845074 a 11.345066,11.345066 0 0 0 -11.34375,11.3438 l 0,419.593696 a 11.345066,11.345066 0 0 0 11.34375,11.3438 l 55.53125,0 a 11.345066,11.345066 0 0 0 11.34375,-11.3438 l 0,-159.25 96.28125,0 c 60.9152,2e-4 105.3686,-12.3838 131.40624,-40.7187 24.54634,-26.7124 37.06212,-60.1939 37.0625,-98.2813 -3.9e-4,-22.3412 -4.59935,-43.2494 -13.875,-62.2187 -9.2028,-18.8181 -21.71176,-34.0076 -37.375,-44.8438 -15.51745,-10.733996 -34.40527,-17.778696 -56.21875,-21.437496 -0.0574,-0.01 -0.12999,-0.021 -0.1875,-0.031 -15.9176,-2.8746 -37.56905,-4.1559 -65.68749,-4.1563 l -158.28125,0 z m 11.34375,22.687496 146.9375,0 c 27.49502,4e-4 48.36129,1.3673 61.81249,3.8125 a 11.345066,11.345066 0 0 0 0.15625,0.031 c 19.31888,3.2203 34.92333,9.2448 47.21875,17.75 12.1939,8.4361 22.09534,20.2483 29.875,36.1563 7.70547,15.7582 11.59342,32.996 11.59375,52.25 -3.4e-4,33.2749 -10.19754,60.2313 -31.0625,82.9375 -19.37498,21.0844 -56.95264,33.3751 -114.71874,33.375 l -107.625,0 a 11.345066,11.345066 0 0 0 -11.34375,11.3437 l 0,159.25 -32.84375,0 0,-396.9062 z m 44.1875,26.8438 a 11.345066,11.345066 0 0 0 -11.34375,11.3437 l 0,149.9688 a 11.345066,11.345066 0 0 0 11.34375,11.3437 l 108.46875,0 c 37.2794,3e-4 65.55178,-6.5874 83.96874,-22.9062 17.62215,-15.6146 26.40592,-38.2902 26.40625,-64.875 -3.3e-4,-19.465 -5.08295,-37.0827 -15.40625,-51.625 -10.23022,-14.4095 -24.43448,-24.4695 -41.28125,-29.125 a 11.345066,11.345066 0 0 0 -0.0937,-0.031 c -11.78959,-3.1273 -29.16017,-4.0934 -54.71874,-4.0938 l -107.34375,0 z m 11.34375,22.6875 96,0 c 24.72938,3e-4 41.82519,1.488 48.78124,3.3125 0.0238,0.01 0.0702,0.025 0.0937,0.031 12.10617,3.3666 21.22373,9.7869 28.71875,20.3437 7.42116,10.4541 11.21848,22.8572 11.21875,38.5 -2.7e-4,21.8807 -6.25654,36.8084 -18.78125,47.9063 -11.73106,10.3946 -34.4428,17.1877 -68.90624,17.1875 l -97.125,0 0,-127.2813 z"
     id="text2419-1" />
</svg>

<svg xmlns="http://www.w3.org/2000/svg" viewBox="0 0 580 580"><path d="m66.28 1.768c-41.34 0-64.57 21.371-64.57 65.04v450.12c0 40.844 20.894 62.23 62.19 62.23h452.02c41.31 0 62.23-20.316 62.23-62.23v-450.12c0-42.601-20.922-65.04-63.52-65.04-.003 0-448.49-.143-448.35 0z" fill="#111" stroke="#eee" stroke-width="3.408"/><g fill="#fff" color="#000"><path d="m145.34 74.22c-2.97 0-5.931 1.213-8.03 3.313-2.1 2.1-3.312 5.062-3.313 8.03v22.469h35.34v-33.813h-24m66.938 0v32.28h41.938v-32.28h-41.938m85.37 0v31.438h41.938v-30.5c-10.578-.622-22.506-.937-35.969-.938h-5.969m87.47 7.5v22.375h41.938v-3.281c-.447-.32-.891-.656-1.344-.969-11.686-8.08-25.27-14.1-40.594-18.12m42.19 21.281v41.938h35.906c-.041-.084-.084-.167-.125-.25-8.347-17.07-19.42-31.13-33.09-41.688h-2.688m-172.34 1.875v41.563h41.938v-41.563h-41.938m86.59.156v41.938h41.938v-41.938h-41.938m-171.47 2.469v41.938h41.938v-41.938h-41.938m215.03 38.531v23.16c.229.31.462.62.688.938 3.819 5.38 6.686 11.287 8.563 17.875h32.688v-41.969h-41.938m-251.12 3.938v41.938h35.34v-41.938h-35.34m334.78 8.219v28.719h-41.469v41.938h41.938v-40.781h6.563c-1.274-10.343-3.606-20.321-7.03-29.875m-298.69 33.19v41.938h41.938v-41.938h-41.938m224.44 38.563c-1.967 7.418-5.115 13.77-9.406 19.281v22.656h41.938v-41.938h-32.531m74.25.063v27.22c3.038-8.699 5.211-17.791 6.563-27.22h-6.563m-334.78 3.844v41.938h35.34v-41.938h-35.34m293.31 36.938v41.938h4.813c2.751-2.37 5.35-4.886 7.781-7.531 9.624-10.473 17.385-21.982 23.281-34.406h-35.875m-87.72.813c-5.488.847-11.416 1.475-17.875 1.813h17.875v-1.813m1.969 1.219v41.938h41.938v-41.938h-41.938m-129.28.906v.563h41.938v-.563h-41.938m42.688 0v40.844h41.938v-40.844h-41.938m-84.87 1.531v41.938h41.938v-41.938h-41.938m215.03 38.563v23c16.359-4.708 30.374-11.338 41.938-20.03v-2.969h-41.938m-87.47 1.531v30.563h10.844c10.894 0 21.264-.406 31.09-1.219v-29.344h-41.938m-85.37.875v29.688h41.938v-29.688h-41.938m-78.28 1.5v41.969h35.34v-41.969h-35.34m36.09 41.44v41.938h41.938v-41.938h-41.938m-36.09 42.469v41.938h35.34v-41.938h-35.34m36.09 41.41v41.938h41.938v-41.938h-41.938m-36.09 42.469v19.656c0 2.97 1.213 5.931 3.313 8.03 2.1 2.1 5.062 3.312 8.03 3.313h24v-31h-35.34" opacity=".75"/><path d="m145.3295 72.845074a11.345066 11.345066 0 0 0 -11.34375 11.3438v419.59a11.345066 11.345066 0 0 0 11.34375 11.3438h55.53a11.345066 11.345066 0 0 0 11.34375 -11.3438v-159.25h96.28c60.915 0 105.37-12.384 131.41-40.719 24.546-26.712 37.06-60.19 37.06-98.28 0-22.341-4.599-43.25-13.875-62.22-9.203-18.818-21.712-34.01-37.37-44.844-15.517-10.734-34.405-17.779-56.22-21.437-.057-.001-.13-.021-.188-.031-15.918-2.875-37.569-4.156-65.69-4.156h-158.28m11.344 22.687h146.94c27.495 0 48.36 1.367 61.812 3.813a11.345066 11.345066 0 0 0 .15625 .031c19.319 3.22 34.923 9.245 47.22 17.75 12.194 8.436 22.1 20.248 29.875 36.16 7.705 15.758 11.593 32.996 11.594 52.25 0 33.27-10.198 60.23-31.06 82.938-19.375 21.08-56.953 33.375-114.72 33.375h-107.62a11.345066 11.345066 0 0 0 -11.34375 11.3437v159.25h-32.844v-396.91m44.1875 26.844a11.345066 11.345066 0 0 0 -11.34375 11.3437v149.97a11.345066 11.345066 0 0 0 11.34375 11.3437h108.47c37.28 0 65.55-6.587 83.969-22.906 17.622-15.615 26.406-38.29 26.406-64.875 0-19.465-5.083-37.08-15.406-51.625-10.23-14.41-24.434-24.47-41.28-29.12a11.345066 11.345066 0 0 0 -.0937 -.031c-11.79-3.127-29.16-4.093-54.719-4.094h-107.34m11.344 22.687h96c24.729 0 41.825 1.488 48.781 3.313.024.001.07.025.094.031 12.11 3.367 21.22 9.787 28.719 20.344 7.421 10.454 11.218 22.857 11.219 38.5 0 21.881-6.257 36.808-18.781 47.906-11.731 10.395-34.443 17.188-68.906 17.188h-97.12v-127.28" opacity=".5"/></g></svg>
